!!!!SEGMENT: Ren1001e-Missa_Sine_nomine-Agnus.krn
!!!id: Ren1001e
!!!AGN: Mass; Agnus
!!!voices: 4
!!!COM: Renaldo
!!!OPR: Missa Sine nomine
!!!OTL: Agnus
**kern	**kern	**kern	**kern
*part4	*part3	*part2	*part1
*staff4	*staff3	*staff2	*staff1
*I"Bassus	*I"Tenor	*I"Altus	*I"Superius
*I'B	*I'T	*I'A	*I'S
*clefF4	*clefGv2	*clefGv2	*clefG2
*k[b-]	*k[b-]	*k[b-]	*k[b-]
*F:	*F:	*F:	*F:
*M2/1	*M2/1	*M2/1	*M2/1
*met(C|)	*met(C|)	*met(C|)	*met(C|)
!!section: Agnus
!!!OMD: Agnus
=1	=1	=1	=1
1d	0r	0r	0r
1d	.	.	.
=2	=2	=2	=2
1c	0r	1r	0r
2.d	.	1d	.
4c	.	.	.
=3	=3	=3	=3
2B-y	0r	1d	0r
4A	.	.	.
4G	.	.	.
1A	.	1c	.
=4	=4	=4	=4
1.G	1d	2.d	0r
.	.	4c	.
.	1d	2B-y	.
2F	.	[2A	.
=5	=5	=5	=5
1E	1c	2A]	0r
.	.	2G	.
1D	2.d	1A	.
.	4c	.	.
=6	=6	=6	=6
2r	4B-y	[0d	1g
.	4A	.	.
1G	1B-y	.	.
.	.	.	1g
4F	4A	.	.
4E	4G	.	.
=7	=7	=7	=7
1D	1A	0d]	1f
2.G	1G	.	[1g
4A	.	.	.
=8	=8	=8	=8
2.B-y	2.G	2.d	1g]
4c	4A	4c	.
2d	4B-y	2B-y	1r
.	4c	.	.
[2D	2d	2A	.
=9	=9	=9	=9
4D]	2B-y	1f	0r
4E	.	.	.
4F	2d	.	.
4G	.	.	.
2A	2c	2e	.
[2B-y	[2d	[2g	.
=10	=10	=10	=10
4B-]	4d]	4g]	1b-y
4A	4c	4f	.
4G	1c	1f	.
4F	.	.	.
1G	.	.	1b-y
.	2B-y	2e	.
=11	=11	=11	=11
2F	2c	2f	2a
2C	2.e-i	2.g	2.cc
1G	.	.	.
.	4d	4f	4b-y
.	4c	4d	[2b-y
.	4B-y	4e	.
=12	=12	=12	=12
1F	1c	1f	2b-]
.	.	.	2a
1B-y	1B-y	2r	1b-y
.	.	2f	.
=13	=13	=13	=13
2B-y	0r	2f	0r
2A	.	2f	.
2G	.	2e	.
[2B-y	.	2d	.
=14	=14	=14	=14
4B-]	0r	2.g	0r
4G	.	.	.
2.c	.	.	.
.	.	4f	.
.	.	4e	.
4B-y	.	4d	.
4A	.	4c	.
4G	.	4B-y	.
=15	=15	=15	=15
4F	0r	2A	0r
4E	.	.	.
2D	.	2.f	.
2.F	.	.	.
.	.	4e	.
.	.	[2d	.
4G	.	.	.
=16	=16	=16	=16
1E	0r	2d]	0r
.	.	2c#i	.
1D	.	[1d	.
=17	=17	=17	=17
1G	2.B-y	1d]	2r
.	.	.	2b-y
.	4c	.	.
1r	4d	1r	2b-y
.	4c	.	.
.	4d	.	2b-y
.	4e	.	.
=18	=18	=18	=18
0r	2f	0r	2a
.	2.e	.	2g
.	.	.	2.cc
.	4c	.	.
.	[2f	.	.
.	.	.	4b-y
=19	=19	=19	=19
0r	4f]	0r	4a
.	4e	.	4g
.	4d	.	4f
.	4c	.	4e
.	4B-y	.	2d
.	4A	.	.
.	2G	.	[2b-y
=20	=20	=20	=20
0r	2.B-y	0r	4b-]
.	.	.	4a
.	.	.	1g
.	4c	.	.
.	1A	.	.
.	.	.	2f#i
=21	=21	=21	=21
1r	1G	1r	1g
2r	2r	2r	2r
2G	2d	2g	2b-y
=22	=22	=22	=22
2G	2.d	2g	2b-y
2G	.	2g	2b-y
.	4e	.	.
2F	2f	2c	2a
2G	2d	2B-y	2g
=23	=23	=23	=23
2C	2e	1c	2.cc
1F	2c	.	.
.	.	.	4b-y
.	2.d	1f	4a
.	.	.	4g
2D	.	.	4f
.	4c	.	4e
=24	=24	=24	=24
1.G	4B-y	2.g	2d
.	4A	.	.
.	1B-y	.	2.b-y
.	.	4f	.
.	.	2d	.
.	.	.	4a
2C	2c	2e	[2g
=25	=25	=25	=25
1D	1A	1d	2g]
.	.	.	2f#i
1G	1G	1d	1g
=26	=26	=26	=26
2r	2r	2r	2r
2D	2A	2d	2f
2G	2B-y	2d	2g
2D	2A	2d	2f
=27	=27	=27	=27
2G	2B-y	2d	2g
2C	2c	2e	2g
[1D	2A	2.d	1f
.	[2d	.	.
.	.	4c	.
=28	=28	=28	=28
2D]	4d]	4B-y	2r
.	4c	4A	.
1G	4B-y	2G	1b-y
.	4A	.	.
.	2G	2.g	.
2E	[2c	.	2g
.	.	4f	.
=29	=29	=29	=29
2.A	2c]	4e	2.cc
.	.	4d	.
.	2A	2c	.
4G	.	.	4b-y
4F	2.d	2.f	4a
4E	.	.	4g
2D	.	.	2f
.	4c	4e	.
=30	=30	=30	=30
4G	4B-y	2d	2.g
4F	4A	.	.
4E	2G	2.g	.
4D	.	.	4f
2C	2.c	.	4e
.	.	4f	4d
[2c	.	4e	2c
.	4B-y	4d	.
=31	=31	=31	=31
4c]	4A	0c	2.cc
4B-y	4G	.	.
4A	2.F	.	.
4G	.	.	4b-y
1F	.	.	4a
.	4G	.	4g
.	2A	.	4f
.	.	.	4e
=32	=32	=32	=32
2G	2B-y	2r	2d
2.F	2.c	2.f	2.a
4G	4B-y	4e	4g
2E	4A	4d	[2g
.	4G	4c	.
=33	=33	=33	=33
1D	1A	1d	2g]
.	.	.	2f#i
1G	[1Gl	1B-y	1g
=34	=34	=34	=34
2r	0G_	2r	2r
2G	.	2B-y	2d
2G	.	2B-y	2d
2C	.	[2c	[2e
=35	=35	=35	=35
1G	0G_	2c]	2e]
.	.	2B-y	2d
[1C	.	[1c	[1e
=36	=36	=36	=36
1C]	0G_	1c]	1e]
[1Gl	.	[1B-yl	[1dl
=37	=37	=37	=37
00G]	00G]	00B-]	00d]
==	==	==	==
*-	*-	*-	*-
!!!system-decoration: [*]
!!!RDF**kern: i = editorial accidental
!!!RDF**kern: l = terminal long
!!!ENC: Benjamin Ory
!!!END: 2024/12/26
!!!EED: Benjamin Ory
!!!EEV: 2025/02/23
!!!YEC: Copyright 2025 Benjamin Ory, All Rights Reserved
!!!ONB: Translated from MusicXML on 2025/02/23